X:1
T:Title
%%score { ( 1 4 ) | ( 2 3 ) }
L:1/8
M:6/4
K:Eb
V:1 treble nm="Grand Piano"
V:4 treble 
V:2 bass 
V:3 bass 
V:1
 z6 z4[Q:1/4=132] B2 | B4 G2 A4 c2 | B6 G4 E2 | [EG]4 [EG]2 [DA]4 D2 | E6- E4 B2 | B4 G2 A4 c2 | %6
 B6 G4 B2 | =A4 B2 c4 A2 | [B,DB]6- [B,DB]4 [DB]2 | [Fd]4 [Ac]2 [B,GB]4 [B,FA]2 | %10
 [B,EG]4 [Ac]2 [EGB]4 [EGB]2 | [FAd]4 [EGc]2 [DFB]4 [DFA]2 | [EG]6- [EG]4 [B,GB]2 | e4 d2 f4 e2 | %14
 e6 c6 | B4 c2 B4 A2 | G6 G4 A2 | B4 E2 e4 B2 | z6 c6 | B4 B2 [Fd]4 [Ad]2 | %20
[M:5/4] [Ge]2- [Ge]2- [Ge]6 |] %21
V:2
 z6 z4 [E,G,E]2 | [E,G,E]4 [E,B,E]2 [E,CE]4 [E,A,E]2 | [E,G,E]6 [E,B,E]4 [C,=A,]2 | %3
 [B,,B,]4 [B,,B,]2 [B,,F,]4 [B,,A,B,]2 | [E,G,B,]6- [E,G,B,]4 [E,G,E]2 | %5
 [E,G,E]4 [E,B,E]2 [E,CE]4 [E,A,E]2 | [E,G,E]6 [E,B,E]4 [G,B,E]2 | %7
 [F,CE]4 [F,B,D]2 [F,=A,C]4 [F,CE]2 | B,,6- B,,4 B,2 | B,4 B,2 B,,4 B,,2 | z4 E2 E,4 E,2 | %11
 B,4 B,2 B,,4 B,,2 | E,6- E,4 E,2 | [G,B,E]4 [G,B,E]2 [G,B,E]4 [G,B,E]2 | [A,CE]6 [A,EA]6 | %15
 [B,EG]4 [B,EG]2 [B,DF]4 [=B,DF]2 | [CE]6[K:bass] E4 [A,D]2 | %17
 [G,B,E]4 [G,B,]2 [G,B,E]4[K:treble] [G,B,E]2 | [A,B,F]6 .[A,CF]6 | %19
 [B,EG]4 [B,G]2[K:bass] [B,,B,]4 [B,,B,]2 |[M:5/4] [E,B,]2- [E,B,]2- [E,B,]6 |] %21
V:3
 x12 | x12 | x12 | x12 | x12 | x12 | x12 | x12 | x12 | x12 | E,6 z6 | x12 | x12 | x12 | x12 | x12 | %16
 z6[K:bass] B,6 | x10[K:treble] x2 | x12 | x6[K:bass] x6 |[M:5/4] x10 |] %21
V:4
 x12 | x12 | x12 | x12 | x12 | x12 | x12 | x12 | x12 | x12 | x12 | x12 | x12 | x12 | x12 | x12 | %16
 x12 | x12 | d6 z4 D2 | x12 |[M:5/4] x10 |] %21

